build/img/icons/error.svg

<svg width="20" height="20" viewBox="0 0 20 20" fill="none" xmlns="http://www.w3.org/2000/svg">
<path d="M10 0C4.48578 0 0 4.48578 0 10C0 15.5142 4.48578 20 10 20C15.5142 20 20 15.5142 20 10C20 4.48578 15.5142 0 10 0Z" fill="#862020"/>
<path d="M13.6827 12.504C14.0085 12.8299 14.0085 13.3565 13.6827 13.6824C13.5202 13.8449 13.3069 13.9266 13.0934 13.9266C12.8801 13.9266 12.6668 13.8449 12.5042 13.6824L10.0001 11.1782L7.49601 13.6824C7.3335 13.8449 7.12019 13.9266 6.90687 13.9266C6.6934 13.9266 6.48008 13.8449 6.31757 13.6824C5.9918 13.3565 5.9918 12.8299 6.31757 12.504L8.82185 9.99989L6.31757 7.49577C5.9918 7.16984 5.9918 6.64326 6.31757 6.31733C6.6435 5.99155 7.17008 5.99155 7.49601 6.31733L10.0001 8.8216L12.5042 6.31733C12.8302 5.99155 13.3568 5.99155 13.6827 6.31733C14.0085 6.64326 14.0085 7.16984 13.6827 7.49577L11.1784 9.99989L13.6827 12.504Z" fill="white"/>
</svg>

<?xml version="1.0" encoding="utf-8"?>
<!-- Generator: Adobe Illustrator 23.1.0, SVG Export Plug-In . SVG Version: 6.00 Build 0)  -->
<svg version="1.1" id="Слой_1" xmlns="http://www.w3.org/2000/svg" xmlns:xlink="http://www.w3.org/1999/xlink" x="0px" y="0px"
	 viewBox="0 0 20 20" style="enable-background:new 0 0 20 20;" xml:space="preserve">
<style type="text/css">
	.st0{fill:#862020;}
</style>
<path class="st0" d="M10,0C4.5,0,0,4.5,0,10s4.5,10,10,10s10-4.5,10-10S15.5,0,10,0z M13.7,12.5c0.3,0.3,0.3,0.9,0,1.2
	c-0.2,0.2-0.4,0.2-0.6,0.2c-0.2,0-0.4-0.1-0.6-0.2L10,11.2l-2.5,2.5c-0.2,0.2-0.4,0.2-0.6,0.2c-0.2,0-0.4-0.1-0.6-0.2
	c-0.3-0.3-0.3-0.9,0-1.2L8.8,10L6.3,7.5C6,7.2,6,6.6,6.3,6.3C6.6,6,7.2,6,7.5,6.3L10,8.8l2.5-2.5c0.3-0.3,0.9-0.3,1.2,0
	c0.3,0.3,0.3,0.9,0,1.2L11.2,10L13.7,12.5z"/>
</svg>
